!!! OTL: Berkowitz134
!!! Chapter: 1
!!! Section: I
!!! Page: 30
!!! Mode: 
!!! Encoder: DJB
**kern
*staff1
*I"Piano
=1-
*clefG2
*k[f#c#g#]
*A:
*M3/4
8cc#\L
8dd\J
4ee\
4b\
=2
8cc#\L
8dd\J
4ee\
4b\
=3
8cc#\L
8aa\J
4ff#\
4dd\
=4
8ee\L
8gg#\J
8bb\L
8gg#\J
8ee\L
8dd\J
=5
4cc#\
4dd\
4ee\
=6
4ff#\
4.aa\
8gg#\
=7
[2.ee\
=8
4ee\]
4r
4dd\
=9
8cc#\L
8dd\J
4ee\
4aa\
=10
!!linebreak:original
8cc#\L
8dd\J
4ee\
4aa\
=11
4gg#\
4bb\
8ee\L
8dd\J
=12
8cc#\L
8b\J
8cc#\L
8dd\J
4ee\
=13
4ff#\
4aa\
4ff#\
=14
4ee\
8ee\L
8dd\J
4cc#\
=15
4dd\
4cc#\
4b\
=16
2.a/
==
*-
